public/images/icon-sheep--leaf.svg

<svg width="30" height="23" viewBox="0 0 30 23" fill="none" xmlns="http://www.w3.org/2000/svg">
<path d="M27 4.875V12H18V4.875C17.625 5.01562 17.0156 5.29688 16.2656 5.625L15.4219 3.51562C15.8438 3.375 17.0156 2.8125 19.0312 1.96875L21 0H24L25.9688 1.96875C27.9844 2.8125 29.1562 3.375 29.625 3.51562L28.7344 5.625C27.9844 5.29688 27.375 5.01562 27 4.875ZM21.75 4.5C21.3281 4.5 21 4.82812 21 5.25C21 5.67188 21.3281 6 21.75 6C22.1719 6 22.5 5.67188 22.5 5.25C22.5 4.82812 22.1719 4.5 21.75 4.5ZM24 5.25C24 5.67188 24.3281 6 24.75 6C25.1719 6 25.5 5.67188 25.5 5.25C25.5 4.82812 25.1719 4.5 24.75 4.5C24.3281 4.5 24 4.82812 24 5.25ZM13.4531 2.76562L15.5156 7.59375L16.5 7.125V13.5H22.5C22.5 13.6406 22.5 13.7344 22.5 13.875C22.5 15.5156 21.1406 16.875 19.5 16.875H19.4531L18.375 22.5H14.25V18.4688C13.6875 19.125 12.8906 19.5 12 19.5C11.1094 19.5 10.3125 19.125 9.75 18.4688V22.5H5.625L4.59375 16.875C4.54688 16.875 4.54688 16.875 4.5 16.875C2.85938 16.875 1.5 15.5156 1.5 13.875C1.5 13.6406 1.54688 13.4062 1.59375 13.1719C0.65625 12.6562 0 11.6719 0 10.5C0 9.375 0.65625 8.34375 1.59375 7.875C1.54688 7.64062 1.5 7.35938 1.5 7.125C1.5 5.48438 2.85938 4.125 4.5 4.125C4.64062 4.125 4.82812 4.125 4.96875 4.17188C5.29688 2.85938 6.46875 1.875 7.875 1.875C8.57812 1.875 9.23438 2.10938 9.75 2.53125C10.3125 1.92188 11.1094 1.5 12 1.5C12.8438 1.5 13.6406 1.875 14.1562 2.4375L13.4531 2.76562Z" fill="#91C15D"/>
</svg>

<svg width="30" height="23" viewBox="0 0 30 23" fill="none" xmlns="http://www.w3.org/2000/svg"><path d="M27 4.875V12h-9V4.875c-.375.14-.984.422-1.734.75l-.844-2.11c.422-.14 1.594-.703 3.61-1.546L21 0h3l1.969 1.969c2.015.843 3.187 1.406 3.656 1.547l-.89 2.109c-.75-.328-1.36-.61-1.735-.75ZM21.75 4.5a.74.74 0 0 0-.75.75c0 .422.328.75.75.75a.74.74 0 0 0 .75-.75.74.74 0 0 0-.75-.75Zm2.25.75c0 .422.328.75.75.75a.74.74 0 0 0 .75-.75.74.74 0 0 0-.75-.75.74.74 0 0 0-.75.75ZM13.453 2.766l2.063 4.828.984-.469V13.5h6v.375c0 1.64-1.36 3-3 3h-.047L18.375 22.5H14.25v-4.031A2.922 2.922 0 0 1 12 19.5c-.89 0-1.688-.375-2.25-1.031V22.5H5.625l-1.031-5.625H4.5c-1.64 0-3-1.36-3-3 0-.234.047-.469.094-.703A3.04 3.04 0 0 1 0 10.5c0-1.125.656-2.156 1.594-2.625a4.103 4.103 0 0 1-.094-.75c0-1.64 1.36-3 3-3 .14 0 .328 0 .469.047.328-1.313 1.5-2.297 2.906-2.297.703 0 1.36.234 1.875.656.563-.61 1.36-1.031 2.25-1.031.844 0 1.64.375 2.156.938l-.703.328Z" fill="#91C15D"/></svg>
